src/images/req.svg

<svg width="25" height="25" viewBox="0 0 25 25" fill="none" xmlns="http://www.w3.org/2000/svg">
<mask id="mask0_40440_301" style="mask-type:alpha" maskUnits="userSpaceOnUse" x="0" y="0" width="25" height="25">
<rect x="0.861008" y="0.248072" width="24" height="24" fill="white"/>
</mask>
<g mask="url(#mask0_40440_301)">
<path d="M2.86101 20.2481V17.4481C2.86101 16.8981 3.00267 16.3814 3.28601 15.8981C3.56934 15.4147 3.96101 15.0481 4.46101 14.7981C5.31101 14.3647 6.26934 13.9981 7.33601 13.6981C8.40267 13.3981 9.57767 13.2481 10.861 13.2481C11.361 13.2481 11.8485 13.2731 12.3235 13.3231C12.7985 13.3731 13.261 13.4481 13.711 13.5481L11.961 15.2981C11.7777 15.2647 11.5985 15.2481 11.4235 15.2481H10.861C9.67767 15.2481 8.61517 15.3897 7.67351 15.6731C6.73184 15.9564 5.96101 16.2647 5.36101 16.5981C5.21101 16.6814 5.09017 16.7981 4.99851 16.9481C4.90684 17.0981 4.86101 17.2647 4.86101 17.4481V18.2481H11.111L13.111 20.2481H2.86101ZM16.411 20.6481L12.961 17.1981L14.361 15.7981L16.411 17.8481L21.461 12.7981L22.861 14.1981L16.411 20.6481ZM10.861 12.2481C9.76101 12.2481 8.81934 11.8564 8.03601 11.0731C7.25267 10.2897 6.86101 9.34807 6.86101 8.24807C6.86101 7.14807 7.25267 6.2064 8.03601 5.42307C8.81934 4.63974 9.76101 4.24807 10.861 4.24807C11.961 4.24807 12.9027 4.63974 13.686 5.42307C14.4693 6.2064 14.861 7.14807 14.861 8.24807C14.861 9.34807 14.4693 10.2897 13.686 11.0731C12.9027 11.8564 11.961 12.2481 10.861 12.2481ZM10.861 10.2481C11.411 10.2481 11.8818 10.0522 12.2735 9.66057C12.6652 9.2689 12.861 8.79807 12.861 8.24807C12.861 7.69807 12.6652 7.22724 12.2735 6.83557C11.8818 6.4439 11.411 6.24807 10.861 6.24807C10.311 6.24807 9.84017 6.4439 9.44851 6.83557C9.05684 7.22724 8.86101 7.69807 8.86101 8.24807C8.86101 8.79807 9.05684 9.2689 9.44851 9.66057C9.84017 10.0522 10.311 10.2481 10.861 10.2481Z" fill="white"/>
</g>
</svg>

<svg width="25" height="25" fill="none" xmlns="http://www.w3.org/2000/svg"><mask id="a" style="mask-type:alpha" maskUnits="userSpaceOnUse" x="0" y="0" width="25" height="25"><path fill="#fff" d="M.861.248h24v24h-24z"/></mask><g mask="url(#a)"><path d="M2.861 20.248v-2.8c0-.55.142-1.067.425-1.55.283-.483.675-.85 1.175-1.1.85-.433 1.808-.8 2.875-1.1 1.067-.3 2.242-.45 3.525-.45.5 0 .987.025 1.462.075.476.05.938.125 1.388.225l-1.75 1.75a2.995 2.995 0 0 0-.537-.05h-.563c-1.183 0-2.246.142-3.187.425-.942.283-1.713.592-2.313.925a.973.973 0 0 0-.5.85v.8h6.25l2 2H2.861zm13.55.4-3.45-3.45 1.4-1.4 2.05 2.05 5.05-5.05 1.4 1.4-6.45 6.45zm-5.55-8.4c-1.1 0-2.042-.392-2.825-1.175-.783-.783-1.175-1.725-1.175-2.825s.392-2.042 1.175-2.825c.783-.783 1.725-1.175 2.825-1.175s2.042.392 2.825 1.175c.783.783 1.175 1.725 1.175 2.825s-.392 2.042-1.175 2.825c-.783.783-1.725 1.175-2.825 1.175zm0-2c.55 0 1.02-.196 1.412-.587.392-.392.588-.863.588-1.413s-.196-1.02-.588-1.412a1.926 1.926 0 0 0-1.412-.588c-.55 0-1.02.196-1.412.588a1.926 1.926 0 0 0-.588 1.412c0 .55.196 1.02.588 1.413.391.391.862.587 1.412.587z" fill="#fff"/></g></svg>
